packages/kaspersky-hexa-ui-icons/src/iconsSVGs/16/Attachment.svg

<svg width="16" height="16" viewBox="0 0 16 16" fill="none" xmlns="http://www.w3.org/2000/svg">
<path d="M9.37522 1.76326C10.5059 0.632626 12.339 0.632625 13.4696 1.76326C14.6002 2.89389 14.6002 4.72701 13.4696 5.85764L8.34453 10.9827C7.65063 11.6766 6.52558 11.6766 5.83168 10.9827C5.13777 10.2888 5.13777 9.16373 5.83168 8.46983L10.0741 4.22744C10.3279 3.9736 10.7395 3.9736 10.9933 4.22744C11.2471 4.48128 11.2471 4.89284 10.9933 5.14668L6.75091 9.38907C6.56469 9.57529 6.56469 9.87722 6.75091 10.0634C6.93714 10.2497 7.23907 10.2497 7.4253 10.0634L11.6677 5.82106C11.6687 5.81999 11.6698 5.81893 11.6709 5.81787L12.5504 4.9384C13.1733 4.31545 13.1733 3.30545 12.5504 2.6825C11.9274 2.05955 10.9174 2.05955 10.2945 2.6825L4.21562 8.76134C3.16927 9.80768 3.16927 11.5041 4.21562 12.5505C5.26197 13.5968 6.95843 13.5968 8.00478 12.5505L13.2009 7.35436C13.4548 7.10052 13.8663 7.10052 14.1202 7.35436C14.374 7.6082 14.374 8.01976 14.1202 8.2736L8.92401 13.4697C7.36998 15.0238 4.85041 15.0238 3.29638 13.4697C1.74235 11.9157 1.74235 9.39613 3.29638 7.8421L9.37522 1.76326Z" fill="black"/>
</svg>

<svg xmlns="http://www.w3.org/2000/svg" width="16" height="16" fill="none" viewBox="0 0 16 16"><path fill="#000" d="M9.3752 1.7633c1.1307-1.1307 2.9638-1.1307 4.0944 0s1.1306 2.9637 0 4.0943l-5.125 5.1251c-.694.6939-1.819.6939-2.513 0-.6938-.6939-.6938-1.819 0-2.5129l4.2425-4.2424a.65.65 0 1 1 .9192.9193L6.7509 9.389a.4768.4768 0 1 0 .6744.6743l4.2424-4.2423.0032-.0032.8795-.8795c.6229-.623.6229-1.633 0-2.2559s-1.633-.623-2.2559 0L4.2156 8.7613c-1.0463 1.0464-1.0463 2.7428 0 3.7892 1.0464 1.0463 2.7428 1.0463 3.7892 0l5.1961-5.1961a.65.65 0 0 1 .9193.9192L8.924 13.4697c-1.554 1.5541-4.0736 1.5541-5.6276 0s-1.554-4.0736 0-5.6276z"/></svg>
